static/assets/images/networks/conflux.svg

<svg width="256" height="256" viewBox="0 0 256 256" fill="none" xmlns="http://www.w3.org/2000/svg">
<path d="M128 256C198.692 256 256 198.692 256 128C256 57.3075 198.692 0 128 0C57.3075 0 0 57.3075 0 128C0 198.692 57.3075 256 128 256Z" fill="white"/>
<path fill-rule="evenodd" clip-rule="evenodd" d="M49.5 148.532L127.662 70.2734L206.5 149.214V111.6L128.338 32.5L49.5889 111.866L49.5 148.532Z" fill="#181818"/>
<path fill-rule="evenodd" clip-rule="evenodd" d="M67.5942 167.928L127.316 228.5L187.731 167.928L169.299 149.214L127.662 191.072L105.133 167.928L146.432 125.733L127.92 107.444L67.5942 167.928Z" fill="#181818"/>
</svg>

<svg xmlns="http://www.w3.org/2000/svg" fill="none" viewBox="0 0 256 256"><path fill="#fff" d="M128 256c70.692 0 128-57.308 128-128S198.692 0 128 0 0 57.308 0 128s57.308 128 128 128"/><path fill="#181818" fill-rule="evenodd" d="m49.5 148.532 78.162-78.259 78.838 78.941V111.6l-78.162-79.1-78.75 79.366z" clip-rule="evenodd"/><path fill="#181818" fill-rule="evenodd" d="m67.594 167.928 59.722 60.572 60.415-60.572-18.432-18.714-41.637 41.858-22.529-23.144 41.299-42.195-18.512-18.289z" clip-rule="evenodd"/></svg>
